T: Ned Naughton's
M: 4/4
L: 1/8
K: Dmaj
|: Ac |dcde dAFA | Bcde dcBA | BGGB AFdF | EFGA GFED |dcde fdAF | EFGA Bcde | fdcd BGEC | D2 D2 D2 :||: cB |A^GAB Acef | gefd dcBA | BGGB AFdF | EFGA GFED |dAFA GBEG | FAdf ecAF | GBAG FDEC | D2 D2 D2 :|The by-the-book lead-ins ~ |: (3ABc | ~ |: z2 | ~
